material/.icons/material/format-size.svg

<svg xmlns="http://www.w3.org/2000/svg" viewBox="0 0 24 24"><path d="M2 4v3h5v12h3V7h5V4H2m19 5h-9v3h3v7h3v-7h3V9z"/></svg>

<?xml version="1.0" encoding="UTF-8"?><!DOCTYPE svg PUBLIC "-//W3C//DTD SVG 1.1//EN" "http://www.w3.org/Graphics/SVG/1.1/DTD/svg11.dtd"><svg xmlns="http://www.w3.org/2000/svg" xmlns:xlink="http://www.w3.org/1999/xlink" version="1.1" id="mdi-format-size" width="24" height="24" viewBox="0 0 24 24"><path d="M2 4V7H7V19H10V7H15V4H2M21 9H12V12H15V19H18V12H21V9Z" /></svg>
